; generated by PrusaSlicer 2.6.0+win64 on 2023-08-16 at 08:52:49 UTC


;
;
; 

; external perimeters extrusion width = 0.45mm
; perimeters extrusion width = 0.45mm
; infill extrusion width = 0.45mm
; solid infill extrusion width = 0.45mm
; top infill extrusion width = 0.40mm
; first layer extrusion width = 0.42mm

; external perimeters extrusion width = 0.45mm
; perimeters extrusion width = 0.45mm
; infill extrusion width = 0.45mm
; solid infill extrusion width = 0.45mm
; top infill extrusion width = 0.40mm
; first layer extrusion width = 0.42mm

; external perimeters extrusion width = 0.45mm
; perimeters extrusion width = 0.45mm
; infill extrusion width = 0.45mm
; solid infill extrusion width = 0.45mm
; top infill extrusion width = 0.40mm
; first layer extrusion width = 0.42mm

; external perimeters extrusion width = 0.45mm
; perimeters extrusion width = 0.45mm
; infill extrusion width = 0.45mm
; solid infill extrusion width = 0.45mm
; top infill extrusion width = 0.40mm
; first layer extrusion width = 0.42mm

; external perimeters extrusion width = 0.45mm
; perimeters extrusion width = 0.45mm
; infill extrusion width = 0.45mm
; solid infill extrusion width = 0.45mm
; top infill extrusion width = 0.40mm
; first layer extrusion width = 0.42mm

M73 P0 R14
M73 Q0 S14
M201 X1000 Y1000 Z200 E8000 ; sets maximum accelerations, mm/sec^2
M203 X200 Y200 Z12 E120 ; sets maximum feedrates, mm / sec
M204 S1250 T1250 ; sets acceleration (S) and retract acceleration (R), mm/sec^2
M205 X8.00 Y8.00 Z0.40 E4.50 ; sets the jerk limits, mm/sec
M205 S0 T0 ; sets the minimum extruding and travel feed rate, mm/sec
;TYPE:Custom
M862.3 P "MK3SMMU3" ; printer model check
M862.1 P0.4 ; nozzle diameter check
M115 U3.12.2 ; tell printer latest fw version
G90 ; use absolute coordinates
M83 ; extruder relative mode
M104 S215 ; set extruder temp
M140 S60 ; set bed temp
M190 S60 ; wait for bed temp
M109 S215 ; wait for extruder temp
G28 W ; home all without mesh bed level
G80 ; mesh bed leveling

; Send the filament type to the MMU unit.
; E stands for extruder number, F stands for filament type (0: default; 1:flex; 2: PVA)
M403 E0 F0
M403 E1 F1
M403 E2 F0
M403 E3 F0
M403 E4 F0


;go outside print area
G1 Y-3 F1000
G1 Z0.4 F1000
; select extruder
T0
; initial load
G1 X55 E29 F1073
G1 X5 E29 F1800
G1 X55 E8 F2000
G1 Z0.3 F1000
G92 E0
G1 X240 E25 F2200
G1 Y-2 F1000
M73 P1 R14
M73 Q1 S14
G1 X55 E25 F1400
G1 Z0.2 F1000
M73 P2 R13
M73 Q2 S14
G1 X5 E4 F1000
G92 E0


M221 S95
G92 E0

; Don't change E values below. Excessive value can damage the printer.

M907 E538 ; set extruder motor current
G21 ; set units to millimeters
G90 ; use absolute coordinates
M83 ; use relative distances for extrusion
T0
M900 K0.05 ; Filament gcode LA 1.5
M900 K30 ; Filament gcode LA 1.0
G1 Z.2 F720
M107
;LAYER_CHANGE
;Z:0.2
;HEIGHT:0.2
;BEFORE_LAYER_CHANGE
G92 E0.0
;0.2


M73 Q2 S13
G1 E-.8 F2100
G1 Z.6 F720
G1 Z.2
;AFTER_LAYER_CHANGE
;0.2
G1 Z.6
G1 X108.014 Y93.693 F10800
G1 Z.2 F720
G1 E.8 F2100
M204 S800
;TYPE:Skirt/Brim
;WIDTH:0.42
;HEIGHT:0.2
G1 F2400
G1 X109.06 Y92.817 E.04278
G1 X110 Y92.623 E.03009
G1 X130.466 Y92.669 E.6417
G1 X140.652 Y94.714 E.32575
G1 X232.48 Y120.886 E2.99386
G1 X233.63 Y121.62 E.04278
M73 P3 R13
M73 Q3 S13
G1 X234.205 Y123.172 E.05189
G1 X234.205 Y142.388 E.6025
G1 X233.814 Y143.695 E.04277
G1 X232.768 Y144.572 E.0428
G1 X231.828 Y144.765 E.03009
G1 X168.172 Y144.765 E1.99589
G1 X167.159 Y144.539 E.03254
G1 X108.987 Y117.151 E2.01598
G1 X107.972 Y116.24 E.04276
G1 X107.623 Y115 E.04039
G1 X107.623 Y95 E.62709
G1 X107.997 Y93.75 E.04091
M204 S1000
; printing object MMUTest.stl id:0 copy 0
;WIPE_START
G1 F8640
G1 X109.06 Y92.817 E-.32658
G1 X110 Y92.623 E-.22162
G1 X111.09 Y92.625 E-.2518
;WIPE_END
G1 Z.6 F720
G1 X116.677 Y95.787 F10800
G1 Z.2 F720
G1 E.8 F2100
M204 S800
;TYPE:Perimeter
;WIDTH:0.419999
G1 F2400
G1 X129.213 Y95.787 E.39306
G1 X129.213 Y97.221 E.04496
G1 X129.249 Y97.422 E.0064
G1 X129.413 Y97.534 E.00623
G1 X129.413 Y112.466 E.46818
G1 X129.249 Y112.578 E.00623
G1 X129.213 Y112.779 E.0064
G1 X129.213 Y114.213 E.04496
G1 X110.787 Y114.213 E.57773
G1 X110.787 Y95.787 E.57773
G1 X116.617 Y95.787 E.1828
M204 S1000
M73 Q4 S13
G1 X116.677 Y95.41 F10800
M204 S800
;TYPE:External perimeter
M73 P4 R13
G1 F2400
G1 X129.59 Y95.41 E.40488
G1 X129.59 Y97.221 E.05678
G1 X129.602 Y97.288 E.00213
G1 X129.79 Y97.421 E.00722
G1 X129.79 Y112.579 E.47527
G1 X129.602 Y112.712 E.00722
G1 X129.59 Y112.779 E.00213
G1 X129.59 Y114.59 E.05678
G1 X110.41 Y114.59 E.60137
G1 X110.41 Y95.41 E.60137
G1 X116.617 Y95.41 E.19462
M204 S1000
G1 X117 Y95.645 F10800
;WIPE_START
G1 F8640
G1 X120.082 Y95.41 E-.8
;WIPE_END
G1 Z.6 F720
G1 X128.269 Y95.957 F10800
G1 Z.2 F720
G1 E.8 F2100
M204 S800
;TYPE:Solid infill
;WIDTH:0.425479
G1 F2400
G1 X128.874 Y96.561 E.02719
G1 X128.874 Y97.102 E.01721
G1 X127.898 Y96.126 E.04391
G1 X127.357 Y96.126 E.01721
G1 X129.074 Y97.843 E.07724
G1 X129.074 Y98.384 E.01721
G1 X126.816 Y96.126 E.10158
G1 X126.275 Y96.126 E.01721
G1 X129.074 Y98.925 E.12592
G1 X129.074 Y99.466 E.01721
G1 X125.734 Y96.126 E.15025
G1 X125.193 Y96.126 E.01721
G1 X129.074 Y100.007 E.17459
G1 X129.074 Y100.548 E.01721
G1 X124.652 Y96.126 E.19893
G1 X124.111 Y96.126 E.01721
G1 X129.074 Y101.089 E.22327
G1 X129.074 Y101.63 E.01721
G1 X123.57 Y96.126 E.2476
G1 X123.029 Y96.126 E.01721
G1 X129.074 Y102.171 E.27194
G1 X129.074 Y102.712 E.01721
G1 X122.488 Y96.126 E.29628
G1 X121.947 Y96.126 E.01721
G1 X129.074 Y103.253 E.32062
G1 X129.074 Y103.794 E.01721
G1 X121.406 Y96.126 E.34495
G1 X120.865 Y96.126 E.01721
G1 X129.074 Y104.335 E.36929
G1 X129.074 Y104.876 E.01721
G1 X120.324 Y96.126 E.39363
G1 X119.783 Y96.126 E.01721
G1 X129.074 Y105.417 E.41796
G1 X129.074 Y105.958 E.01721
G1 X119.242 Y96.126 E.4423
G1 X118.701 Y96.126 E.01721
G1 X129.074 Y106.499 E.46664
G1 X129.074 Y107.04 E.01721
G1 X118.16 Y96.126 E.49098
G1 X117.619 Y96.126 E.01721
G1 X129.074 Y107.581 E.51531
G1 X129.074 Y108.122 E.01721
M73 Q5 S13
G1 X117.078 Y96.126 E.53965
G1 X116.537 Y96.126 E.01721
M73 P5 R13
G1 X129.074 Y108.663 E.56399
G1 X129.074 Y109.204 E.01721
G1 X115.996 Y96.126 E.58833
G1 X115.455 Y96.126 E.01721
G1 X129.074 Y109.745 E.61266
G1 X129.074 Y110.286 E.01721
G1 X114.914 Y96.126 E.637
G1 X114.373 Y96.126 E.01721
G1 X129.074 Y110.827 E.66134
G1 X129.074 Y111.369 E.01724
G1 X113.831 Y96.126 E.68572
G1 X113.29 Y96.126 E.01721
G1 X129.074 Y111.91 E.71006
G1 X129.074 Y112.328 E.0133
G1 X129.001 Y112.378 E.00281
G1 X112.749 Y96.126 E.73111
G1 X112.208 Y96.126 E.01721
G1 X128.874 Y112.792 E.74974
G1 X128.874 Y113.333 E.01721
G1 X111.667 Y96.126 E.77407
G1 X111.126 Y96.127 E.01721
G1 X128.873 Y113.874 E.79837
G1 X128.332 Y113.874 E.01721
G1 X111.126 Y96.668 E.77403
G1 X111.126 Y97.209 E.01721
G1 X127.791 Y113.874 E.74969
G1 X127.25 Y113.874 E.01721
G1 X111.126 Y97.75 E.72535
G1 X111.126 Y98.291 E.01721
M73 P6 R13
M73 Q6 S13
G1 X126.709 Y113.874 E.70102
G1 X126.168 Y113.874 E.01721
G1 X111.126 Y98.832 E.67668
G1 X111.126 Y99.373 E.01721
G1 X125.627 Y113.874 E.65234
G1 X125.086 Y113.874 E.01721
G1 X111.126 Y99.914 E.628
G1 X111.126 Y100.455 E.01721
G1 X124.545 Y113.874 E.60367
G1 X124.004 Y113.874 E.01721
G1 X111.126 Y100.996 E.57933
G1 X111.126 Y101.537 E.01721
G1 X123.463 Y113.874 E.55499
G1 X122.922 Y113.874 E.01721
G1 X111.126 Y102.078 E.53065
G1 X111.126 Y102.619 E.01721
G1 X122.381 Y113.874 E.50632
G1 X121.84 Y113.874 E.01721
G1 X111.126 Y103.16 E.48198
G1 X111.126 Y103.701 E.01721
G1 X121.299 Y113.874 E.45764
G1 X120.758 Y113.874 E.01721
G1 X111.126 Y104.242 E.43331
G1 X111.126 Y104.783 E.01721
G1 X120.217 Y113.874 E.40897
G1 X119.676 Y113.874 E.01721
G1 X111.126 Y105.324 E.38463
G1 X111.126 Y105.865 E.01721
G1 X119.135 Y113.874 E.36029
G1 X118.594 Y113.874 E.01721
G1 X111.126 Y106.406 E.33596
G1 X111.126 Y106.947 E.01721
G1 X118.053 Y113.874 E.31162
G1 X117.512 Y113.874 E.01721
G1 X111.126 Y107.488 E.28728
G1 X111.126 Y108.029 E.01721
G1 X116.971 Y113.874 E.26294
M73 Q7 S13
G1 X116.43 Y113.874 E.01721
M73 P7 R13
G1 X111.126 Y108.57 E.23861
G1 X111.126 Y109.111 E.01721
G1 X115.889 Y113.874 E.21427
G1 X115.348 Y113.874 E.01721
G1 X111.126 Y109.652 E.18993
G1 X111.126 Y110.193 E.01721
G1 X114.807 Y113.874 E.16559
G1 X114.266 Y113.874 E.01721
G1 X111.126 Y110.734 E.14126
G1 X111.126 Y111.275 E.01721
G1 X113.725 Y113.874 E.11692
G1 X113.184 Y113.874 E.01721
G1 X111.126 Y111.816 E.09258
M73 P8 R13
M73 Q8 S13
G1 X111.126 Y112.357 E.01721
G1 X112.643 Y113.874 E.06824
G1 X112.102 Y113.874 E.01721
G1 X111.126 Y112.898 E.04391
G1 X111.126 Y113.439 E.01721
G1 X111.731 Y114.043 E.02719
M204 S1000
; stop printing object MMUTest.stl id:0 copy 0
;WIPE_START
G1 F8640
G1 X111.126 Y113.439 E-.1974
G1 X111.126 Y112.898 E-.12492
G1 X112.102 Y113.874 E-.31871
G1 X112.643 Y113.874 E-.12492
G1 X112.539 Y113.77 E-.03405
;WIPE_END
G1 Z.6 F720
G1 X229.5 Y125.5 F10800
G1 Z.2 F720
M73 P9 R12
M73 Q9 S13
G1 E.8 F2100
;HEIGHT:0.2
;TYPE:Wipe tower
;WIDTH:0.5
G1 X230.000 Y125.000
G1 Y140.560 E0.5914 F2400
G1 X170.000 E2.2804
G1 Y125.000 E0.5914
M73 Q9 S12
G1 X230.000 E2.2804
G1 X230.457 Y124.543
G1 Y141.017 E0.6261
G1 X169.543 E2.3151
G1 Y124.543 E0.6261
G1 X230.457 E2.3151
G1 X230.914 Y124.086
M73 P10 R12
M73 Q10 S12
G1 Y141.474 E0.6609
G1 X169.086 E2.3499
G1 Y124.086 E0.6609
G1 X230.914 E2.3499
G1 X231.371 Y123.629
G1 Y141.931 E0.6956
G1 X168.629 E2.3846
G1 Y123.629 E0.6956
G1 X231.371 E2.3846
G1 X231.828 Y123.172
M73 Q11 S12
G1 Y142.388 E0.7304
G1 X168.172 E2.4194
M73 P11 R12
G1 Y123.172 E0.7304
G1 X231.828 E2.4194
G1 X229.750 Y140.310 F7200
;HEIGHT:0.2
;TYPE:Wipe tower
;WIDTH:0.5
;--------------------
; CP TOOLCHANGE START
; toolchange #1
; material : PLA -> FLEX
;--------------------
M220 B
M220 S100
; CP TOOLCHANGE UNLOAD
;WIDTH:0.65
G1 X229.250 Y139.920
M900 K0
G1 F1339
G1 X223.671 E0.2816
G1 F1451
G1 X217.626 E0.3051
G1 F1642
G1 X210.785 E0.3453
G1 F1897
G1 X202.881 E0.3990
G1 F2264
G1 X193.449 E0.4761
G1 F2742
G1 X182.025 E0.5767
G1 F3220
G1 X170.750 E0.5691
G1 Y139.140 F7200
G1 F3220
G1 X172.892 E0.1081
G1 F3635
G1 X188.036 E0.7644
G1 F3921
G1 X204.375 E0.8248
G1 F4033
G1 X221.180 E0.8483
;WIDTH:0.5
G1 E-15.0000 F6000
G1 E-24.5000 F1200
G1 E-7.0000 F600
M73 Q12 S12
G1 E-3.5000 F360
M104 S230
M73 P12 R12
G1 Y138.360
G1 X170.750 E20.0000 F454
G1 X221.180 E-20.0000 F303
G1 E-35.0000 F2000
M73 P14 R12
M73 Q14 S12
G1 Y138.500 F2400
G4 S0
G1 Z.6 F720
; Filament-specific end gcode
T1
M900 K0.05 ; Filament gcode LA 1.5
M900 K30 ; Filament gcode LA 1.0

G1 F10800
G1 X221.180 Y138.500
G1 Z.2 F720
G4 S0
; CP TOOLCHANGE LOAD
G1 E12.0000 F1140
G1 X170.625 E42.0000 F1011
G1 X221.180 E6.0000 F708
G1 Y139.000
; CP TOOLCHANGE WIPE
M73 P15 R12
M73 Q15 S12
G1 X229.000 E0.3507 F792
G1 X229.750 Y138.500 E0.0404
G1 X171.000 E2.6348 F900
G1 X170.250 Y138.000 E0.0404
G1 X229.000 E2.6348 F1099
G1 Y137.500 E0.0224
M73 P16 R11
M73 Q16 S12
G1 X171.000 E2.6012 F2100
G1 Y137.000 E0.0224
M73 Q16 S11
G1 X229.000 E2.6012 F2150
G1 X229.750 Y136.500 E0.0404
G1 X171.000 E2.6348 F2200
G1 X170.250 Y136.000 E0.0404
G1 X229.000 E2.6348 F2225
G1 Y135.500 E0.0224
G1 X171.000 E2.6012
G1 Y135.000 E0.0224
M73 P17 R11
M73 Q17 S11
G1 X229.000 E2.6012
G1 X229.750 Y134.500 E0.0404
G1 X171.000 E2.6348
G1 X170.250 Y134.000 E0.0404
G1 X229.000 E2.6348
G1 Y133.500 E0.0224
G1 X171.000 E2.6012
G1 Y133.000 E0.0224
G1 X229.000 E2.6012
G1 X229.750 Y132.500 E0.0404
M73 P18 R11
M73 Q18 S11
G1 X171.000 E2.6348
G1 X170.250 Y132.000 E0.0404
G1 X229.000 E2.6348
G1 Y131.500 E0.0224
G1 X171.000 E2.6012
G1 Y131.000 E0.0224
G1 X229.000 E2.6012
G1 X229.750 Y130.500 E0.0404
G1 X171.000 E2.6348
G1 X170.250 Y130.000 E0.0404
M73 Q19 S11
G1 X229.000 E2.6348
G1 Y129.500 E0.0224
M73 P19 R11
G1 X171.000 E2.6012
G1 Y129.000 E0.0224
G1 X229.000 E2.6012
G1 X229.750 Y128.500 E0.0404
G1 X171.000 E2.6348
G1 X170.250 Y128.000 E0.0404
G1 X229.000 E2.6348
G1 Y127.500 E0.0224
G1 X171.000 E2.6012
G1 Y127.000 E0.0224
M73 P20 R11
M73 Q20 S11
G1 X229.000 E2.6012
G1 X229.750 Y126.500 E0.0404
G1 X171.000 E2.6348
G1 X170.250 Y126.000 E0.0404
G1 X229.000 E2.6348
G1 Y125.500 E0.0224
G1 X171.000 E2.6012
M220 R
G1 F10800
G4 S0
G92 E0
; CP TOOLCHANGE END
;------------------



; printing object MMUTest.stl id:0 copy 0
;WIPE_START
G1 F8640
G1 X171 Y126 E-.11545
G1 X178.295 Y126 E-1.68455
;WIPE_END
G1 X139.213 Y105.746 F10800
G1 E1.8 F2100
M204 S800
;TYPE:Perimeter
;WIDTH:0.419999
;HEIGHT:0.2
G1 F2400
G1 X139.213 Y112.213 E.20277
G1 X130.587 Y112.213 E.27046
M73 Q21 S11
G1 X130.587 Y97.787 E.45232
M73 P21 R11
G1 X139.213 Y97.787 E.27046
G1 X139.213 Y105.686 E.24767
M204 S1000
G1 X139.59 Y105.746 F10800
M204 S800
;TYPE:External perimeter
G1 F2400
G1 X139.59 Y112.59 E.21459
G1 X130.21 Y112.59 E.2941
G1 X130.21 Y97.41 E.47596
G1 X139.59 Y97.41 E.2941
G1 X139.59 Y105.686 E.25949
M204 S1000
G1 X139.313 Y106.034 F10800
;WIPE_START
G1 F8640
G1 X139.59 Y112.59 E-1.59415
G1 X138.699 Y112.59 E-.20585
;WIPE_END
G1 X138.279 Y97.957 F10800
G1 E1.8 F2100
M204 S800
;TYPE:Solid infill
;WIDTH:0.420857
G1 F2400
G1 X138.874 Y98.551 E.02642
G1 X138.874 Y99.086 E.01681
G1 X137.914 Y98.126 E.04266
G1 X137.38 Y98.126 E.01678
G1 X138.874 Y99.62 E.0664
G1 X138.874 Y100.155 E.01681
G1 X136.845 Y98.126 E.09017
G1 X136.311 Y98.126 E.01678
G1 X138.874 Y100.689 E.11391
G1 X138.874 Y101.224 E.01681
G1 X135.776 Y98.126 E.13768
G1 X135.242 Y98.126 E.01678
G1 X138.874 Y101.758 E.16142
G1 X138.874 Y102.293 E.01681
G1 X134.707 Y98.126 E.18519
G1 X134.173 Y98.126 E.01678
G1 X138.874 Y102.827 E.20892
G1 X138.874 Y103.362 E.01681
G1 X133.638 Y98.126 E.2327
G1 X133.104 Y98.126 E.01678
G1 X138.874 Y103.896 E.25643
G1 X138.874 Y104.43 E.01678
G1 X132.57 Y98.126 E.28017
G1 X132.035 Y98.126 E.01681
G1 X138.874 Y104.965 E.30394
G1 X138.874 Y105.499 E.01678
G1 X131.501 Y98.126 E.32767
G1 X130.966 Y98.126 E.01681
G1 X138.874 Y106.034 E.35145
G1 X138.874 Y106.568 E.01678
G1 X130.926 Y98.621 E.35321
G1 X130.926 Y99.156 E.01681
G1 X138.874 Y107.103 E.35321
G1 X138.874 Y107.637 E.01678
G1 X130.926 Y99.69 E.35321
G1 X130.926 Y100.225 E.01681
G1 X138.874 Y108.172 E.35321
G1 X138.874 Y108.706 E.01678
G1 X130.926 Y100.759 E.35321
G1 X130.926 Y101.294 E.01681
G1 X138.874 Y109.241 E.35321
G1 X138.874 Y109.775 E.01678
G1 X130.926 Y101.828 E.35321
G1 X130.926 Y102.363 E.01681
M73 Q22 S11
G1 X138.874 Y110.31 E.35321
G1 X138.874 Y110.844 E.01678
M73 P22 R11
G1 X130.926 Y102.897 E.35321
G1 X130.926 Y103.432 E.01681
G1 X138.874 Y111.379 E.35321
G1 X138.874 Y111.874 E.01556
G1 X138.834 Y111.874 E.00126
G1 X130.926 Y103.966 E.35145
G1 X130.926 Y104.501 E.01681
G1 X138.299 Y111.874 E.32767
G1 X137.765 Y111.874 E.01678
G1 X130.926 Y105.035 E.30394
G1 X130.926 Y105.57 E.01681
G1 X137.23 Y111.874 E.28017
G1 X136.696 Y111.874 E.01678
G1 X130.926 Y106.104 E.25643
G1 X130.926 Y106.639 E.01681
G1 X136.161 Y111.874 E.23266
G1 X135.627 Y111.874 E.01678
G1 X130.926 Y107.173 E.20892
G1 X130.926 Y107.708 E.01681
G1 X135.092 Y111.874 E.18515
G1 X134.558 Y111.874 E.01678
G1 X130.926 Y108.242 E.16142
G1 X130.926 Y108.777 E.01681
G1 X134.023 Y111.874 E.13764
G1 X133.489 Y111.874 E.01678
G1 X130.926 Y109.311 E.11391
G1 X130.926 Y109.845 E.01678
G1 X132.955 Y111.874 E.09017
G1 X132.42 Y111.874 E.01681
G1 X130.926 Y110.38 E.0664
G1 X130.926 Y110.914 E.01678
G1 X131.886 Y111.874 E.04266
G1 X131.351 Y111.874 E.01681
G1 X130.757 Y111.279 E.02642
M204 S1000
; stop printing object MMUTest.stl id:0 copy 0
M106 S84.15
;LAYER_CHANGE
;Z:0.4
;HEIGHT:0.2
;BEFORE_LAYER_CHANGE
G92 E0.0
;0.4


;WIPE_START
G1 F8640
G1 X131.351 Y111.874 E-.19413
G1 X131.886 Y111.874 E-.12353
G1 X130.926 Y110.914 E-.31348
G1 X130.926 Y110.38 E-.1233
G1 X132.42 Y111.874 E-.48786
G1 X132.955 Y111.874 E-.12353
G1 X131.625 Y110.544 E-.43417
;WIPE_END
G1 Z.4 F720
;AFTER_LAYER_CHANGE
;0.4
G1 X124.972 Y124.676 F10800
G1 E1.8 F2100
;TYPE:Skirt/Brim
;WIDTH:0.42
;HEIGHT:0.2
G1 F3000
G1 X108.987 Y117.151 E.55396
G1 X107.972 Y116.24 E.04276
G1 X107.623 Y115 E.04039
G1 X107.623 Y95 E.62709
G1 X108.014 Y93.693 E.04277
G1 X109.06 Y92.817 E.04278
G1 X110 Y92.623 E.03009
G1 X130.466 Y92.669 E.6417
